src/actions/24/edit-copy.svg

<svg version="1.1" viewBox="0 0 24 24" xmlns="http://www.w3.org/2000/svg">
 <defs>
  <style id="current-color-scheme" type="text/css">.ColorScheme-Text {
        color:#363636;
      }</style>
 </defs>
 <path class="ColorScheme-Text" d="m9 21c-1.662 0-3-1.338-3-3v-10c0-1.662 1.338-3 3-3h8c1.662 0 3 1.338 3 3v9l-4 4zm0-1h6v-2c0-1.108 0.892-2 2-2h2v-8c0-1.108-0.892-2-2-2h-8c-1.108 0-2 0.892-2 2v10c0 1.108 0.892 2 2 2z" fill="currentColor"/>
 <path class="ColorScheme-Text" d="m7 3c-1.662 0-3 1.338-3 3v10c0 1.3551 0.89551 2.4829 2.125 2.8574-0.080326-0.27154-0.125-0.55915-0.125-0.85742v-0.27539c-0.5958-0.34556-1-0.98355-1-1.7246v-10c0-1.108 0.892-2 2-2h8c0.74107 0 1.379 0.4042 1.7246 1h0.27539c0.29827 0 0.58588 0.044674 0.85742 0.125-0.37457-1.2295-1.5023-2.125-2.8574-2.125h-8zm12.816 3.9707c0.009953 0.027373 0.020123 0.054288 0.029297 0.082031-0.009271-0.027724-0.019239-0.054687-0.029297-0.082031zm0.070313 0.21875c0.012369 0.044427 0.024796 0.08952 0.035156 0.13477-0.010489-0.045432-0.02262-0.090182-0.035156-0.13477zm0.060547 0.25781c0.012153 0.065592 0.021457 0.13217 0.029296 0.19922-0.007888-0.066981-0.017064-0.13374-0.029296-0.19922zm0.037109 0.25977c0.009328 0.096729 0.015625 0.19371 0.015625 0.29297 0-0.099202-0.006246-0.19641-0.015625-0.29297zm-12.014 13.109c0.027344 0.010057 0.054308 0.020026 0.082031 0.029297-0.027743-0.009174-0.054659-0.019344-0.082031-0.029297zm0.21875 0.070313c0.044582 0.012536 0.089334 0.024667 0.13477 0.035156-0.045246-0.01036-0.090338-0.022787-0.13477-0.035156zm0.25781 0.060547c0.065478 0.012231 0.13224 0.021408 0.19922 0.029296-0.067044-0.007839-0.13363-0.017143-0.19922-0.029296zm0.25977 0.037109c0.096557 0.009379 0.19377 0.015625 0.29297 0.015625-0.099256 0-0.19624-0.006297-0.29297-0.015625z" fill="currentColor"/>
</svg>

<svg xmlns="http://www.w3.org/2000/svg" viewBox="0 0 24 24">
    <defs>
        <style id="current-color-scheme" type="text/css">
            .ColorScheme-Text{color:#050505;opacity:.7}
        </style>
    </defs>
    <path fill="currentColor" d="M9 21c-1.662 0-3-1.338-3-3V8c0-1.662 1.338-3 3-3h8c1.662 0 3 1.338 3 3v9l-4 4zm0-1h6v-2c0-1.108.892-2 2-2h2V8c0-1.108-.892-2-2-2H9c-1.108 0-2 .892-2 2v10c0 1.108.892 2 2 2z" class="ColorScheme-Text"/>
    <path fill="currentColor" d="M7 3C5.338 3 4 4.338 4 6v10c0 1.355.896 2.483 2.125 2.857A3.018 3.018 0 0 1 6 18v-.275A1.99 1.99 0 0 1 5 16V6c0-1.108.892-2 2-2h8a1.99 1.99 0 0 1 1.725 1H17c.298 0 .586.045.857.125A2.984 2.984 0 0 0 15 3H7zm12.816 3.97.03.083-.03-.082zm.07.22zm.06.257zm.038.26zM7.97 20.816l.082.03-.082-.03zm.219.07zm.258.06zm.26.038z" class="ColorScheme-Text"/>
</svg>
